fs/apps_add_in_20_filled.svg

<svg viewBox="0 0 20 20" fill="none" xmlns="http://www.w3.org/2000/svg" height="1em" width="1em">
  <path d="M15 2.5C15.4142 2.5 15.75 2.83579 15.75 3.25V4.75L17.25 4.75C17.6642 4.75 18 5.08579 18 5.5C18 5.91421 17.6642 6.25 17.25 6.25H15.75V7.75C15.75 8.16421 15.4142 8.5 15 8.5C14.5858 8.5 14.25 8.16421 14.25 7.75V6.25H12.75C12.3358 6.25 12 5.91421 12 5.5C12 5.08579 12.3358 4.75 12.75 4.75H14.25V3.25C14.25 2.83579 14.5858 2.5 15 2.5ZM4.75 3C3.7835 3 3 3.7835 3 4.75V15.25C3 16.2165 3.7835 17 4.75 17H15.25C16.2165 17 17 16.2165 17 15.25V10.75C17 9.7835 16.2165 9 15.25 9H11.25C11.1119 9 11 8.88807 11 8.75V4.75C11 3.7835 10.2165 3 9.25 3H4.75ZM4.5 4.75C4.5 4.61193 4.61193 4.5 4.75 4.5H9.25C9.38807 4.5 9.5 4.61193 9.5 4.75V8.75C9.5 8.83488 9.50604 8.91835 9.51772 9H4.5V4.75ZM9.5 10.5V15.5H4.75C4.61193 15.5 4.5 15.3881 4.5 15.25V10.5H9.5ZM11 15.5V10.4823C11.0817 10.494 11.1651 10.5 11.25 10.5H15.25C15.3881 10.5 15.5 10.6119 15.5 10.75V15.25C15.5 15.3881 15.3881 15.5 15.25 15.5H11Z" fill="#212121"/>
</svg>

<svg viewBox="0 0 20 20" fill="none" xmlns="http://www.w3.org/2000/svg" height="1em" width="1em">
  <path d="M15 2.5a.75.75 0 0 1 .75.75v1.5h1.5a.75.75 0 0 1 0 1.5h-1.5v1.5a.75.75 0 0 1-1.5 0v-1.5h-1.5a.75.75 0 0 1 0-1.5h1.5v-1.5A.75.75 0 0 1 15 2.5ZM4.75 3A1.75 1.75 0 0 0 3 4.75v10.5c0 .966.784 1.75 1.75 1.75h10.5A1.75 1.75 0 0 0 17 15.25v-4.5A1.75 1.75 0 0 0 15.25 9h-4a.25.25 0 0 1-.25-.25v-4A1.75 1.75 0 0 0 9.25 3h-4.5ZM4.5 4.75a.25.25 0 0 1 .25-.25h4.5a.25.25 0 0 1 .25.25v4c0 .085.006.168.018.25H4.5V4.75Zm5 5.75v5H4.75a.25.25 0 0 1-.25-.25V10.5h5Zm1.5 5v-5.018c.082.012.165.018.25.018h4a.25.25 0 0 1 .25.25v4.5a.25.25 0 0 1-.25.25H11Z" fill="#212121"/>
</svg>
